X:5757
T:Sally Gardens, The
O:england
M:C|
E:7
R:reel
K:G
DE|~G2 DG BAGB|dBeB dBAB|d2 (3Bcd eBdB|AcBA GEDE|~G2 DG BAGB|dBeB dBAB|d2 (3Bcd efge|dBAB G2:|
Bc|dggf g2 dg| ~g2 bg aged|ea ~a2 a2 ea|~a2 bg ageg|dggf g2 dg| ~g2 bg ageg|d2 (3Bcd efge|dBAB G2:|


